images/3235157.svg

<?xml version="1.0" encoding="UTF-8"?>
<svg xmlns="http://www.w3.org/2000/svg" xmlns:xlink="http://www.w3.org/1999/xlink" width="300pt" height="300pt" viewBox="0 0 300 300" version="1.1">
<defs>
<g>
<symbol overflow="visible" id="glyph0-0">
<path style="stroke:none;" d="M 0.453125 1.59375 L 0.453125 -6.34375 L 4.953125 -6.34375 L 4.953125 1.59375 Z M 0.953125 1.09375 L 4.453125 1.09375 L 4.453125 -5.84375 L 0.953125 -5.84375 Z M 0.953125 1.09375 "/>
</symbol>
<symbol overflow="visible" id="glyph0-1">
<path style="stroke:none;" d="M 0.890625 -6.5625 L 2.078125 -6.5625 L 4.984375 -1.078125 L 4.984375 -6.5625 L 5.84375 -6.5625 L 5.84375 0 L 4.65625 0 L 1.75 -5.484375 L 1.75 0 L 0.890625 0 Z M 0.890625 -6.5625 "/>
</symbol>
<symbol overflow="visible" id="glyph0-2">
<path style="stroke:none;" d="M 3.546875 -5.953125 C 2.898438 -5.953125 2.382812 -5.710938 2 -5.234375 C 1.625 -4.753906 1.4375 -4.101562 1.4375 -3.28125 C 1.4375 -2.445312 1.625 -1.789062 2 -1.3125 C 2.382812 -0.832031 2.898438 -0.59375 3.546875 -0.59375 C 4.191406 -0.59375 4.703125 -0.832031 5.078125 -1.3125 C 5.453125 -1.789062 5.640625 -2.445312 5.640625 -3.28125 C 5.640625 -4.101562 5.453125 -4.753906 5.078125 -5.234375 C 4.703125 -5.710938 4.191406 -5.953125 3.546875 -5.953125 Z M 3.546875 -6.6875 C 4.460938 -6.6875 5.195312 -6.375 5.75 -5.75 C 6.300781 -5.132812 6.578125 -4.3125 6.578125 -3.28125 C 6.578125 -2.238281 6.300781 -1.410156 5.75 -0.796875 C 5.195312 -0.179688 4.460938 0.125 3.546875 0.125 C 2.617188 0.125 1.878906 -0.179688 1.328125 -0.796875 C 0.773438 -1.410156 0.5 -2.238281 0.5 -3.28125 C 0.5 -4.3125 0.773438 -5.132812 1.328125 -5.75 C 1.878906 -6.375 2.617188 -6.6875 3.546875 -6.6875 Z M 3.546875 -6.6875 "/>
</symbol>
<symbol overflow="visible" id="glyph0-3">
<path style="stroke:none;" d="M 0.890625 -6.5625 L 1.765625 -6.5625 L 1.765625 -3.875 L 5 -3.875 L 5 -6.5625 L 5.890625 -6.5625 L 5.890625 0 L 5 0 L 5 -3.125 L 1.765625 -3.125 L 1.765625 0 L 0.890625 0 Z M 0.890625 -6.5625 "/>
</symbol>
<symbol overflow="visible" id="glyph0-4">
<path style="stroke:none;" d="M 0.890625 -6.5625 L 4.65625 -6.5625 L 4.65625 -5.8125 L 1.765625 -5.8125 L 1.765625 -3.875 L 4.375 -3.875 L 4.375 -3.140625 L 1.765625 -3.140625 L 1.765625 0 L 0.890625 0 Z M 0.890625 -6.5625 "/>
</symbol>
</g>
</defs>
<g id="surface34261">
<rect x="0" y="0" width="300" height="300" style="fill:rgb(100%,100%,100%);fill-opacity:1;stroke:none;"/>
<path style="fill:none;stroke-width:1.2;stroke-linecap:butt;stroke-linejoin:miter;stroke:rgb(0%,0%,0%);stroke-opacity:1;stroke-miterlimit:10;" d="M 128.945312 168.84375 L 110.609375 173.148438 "/>
<path style="fill:none;stroke-width:1.2;stroke-linecap:butt;stroke-linejoin:miter;stroke:rgb(0%,0%,0%);stroke-opacity:1;stroke-miterlimit:10;" d="M 134.382812 150.8125 L 128.945312 168.84375 "/>
<path style="fill:none;stroke-width:1.2;stroke-linecap:butt;stroke-linejoin:miter;stroke:rgb(0%,0%,0%);stroke-opacity:1;stroke-miterlimit:10;" d="M 110.609375 173.148438 L 104.160156 166.285156 "/>
<path style="fill:none;stroke-width:1.2;stroke-linecap:butt;stroke-linejoin:miter;stroke:rgb(0%,0%,100%);stroke-opacity:1;stroke-miterlimit:10;" d="M 104.160156 166.285156 L 97.714844 159.421875 "/>
<path style="fill:none;stroke-width:1.2;stroke-linecap:butt;stroke-linejoin:miter;stroke:rgb(0%,0%,100%);stroke-opacity:1;stroke-miterlimit:10;" d="M 97.714844 159.421875 L 100.433594 150.40625 "/>
<path style="fill:none;stroke-width:1.2;stroke-linecap:butt;stroke-linejoin:miter;stroke:rgb(0%,0%,0%);stroke-opacity:1;stroke-miterlimit:10;" d="M 100.433594 150.40625 L 103.152344 141.390625 "/>
<path style="fill:none;stroke-width:1.2;stroke-linecap:butt;stroke-linejoin:miter;stroke:rgb(0%,0%,100%);stroke-opacity:1;stroke-miterlimit:10;" d="M 97.714844 159.421875 L 88.546875 161.574219 "/>
<path style="fill:none;stroke-width:1.2;stroke-linecap:butt;stroke-linejoin:miter;stroke:rgb(0%,0%,0%);stroke-opacity:1;stroke-miterlimit:10;" d="M 88.546875 161.574219 L 79.378906 163.726562 "/>
<path style=" stroke:none;fill-rule:nonzero;fill:rgb(100%,100%,100%);fill-opacity:1;" d="M 94.714844 153.921875 L 101.714844 153.921875 L 101.714844 164.921875 L 94.714844 164.921875 Z M 94.714844 153.921875 "/>
<g style="fill:rgb(0%,0%,100%);fill-opacity:1;">
  <use xlink:href="#glyph0-1" x="94.714844" y="162.584961"/>
</g>
<path style="fill:none;stroke-width:1.2;stroke-linecap:butt;stroke-linejoin:miter;stroke:rgb(0%,0%,0%);stroke-opacity:1;stroke-miterlimit:10;" d="M 103.152344 141.390625 L 121.488281 137.085938 "/>
<path style="fill:none;stroke-width:1.2;stroke-linecap:butt;stroke-linejoin:miter;stroke:rgb(0%,0%,0%);stroke-opacity:1;stroke-miterlimit:10;" d="M 121.488281 137.085938 L 134.382812 150.8125 "/>
<path style="fill:none;stroke-width:1.2;stroke-linecap:butt;stroke-linejoin:miter;stroke:rgb(0%,0%,0%);stroke-opacity:1;stroke-miterlimit:10;" d="M 134.382812 150.8125 L 147.28125 164.539062 "/>
<path style="fill:none;stroke-width:1.2;stroke-linecap:butt;stroke-linejoin:miter;stroke:rgb(0%,0%,0%);stroke-opacity:1;stroke-miterlimit:10;" d="M 139.824219 132.78125 L 134.382812 150.8125 "/>
<path style="fill:none;stroke-width:1.2;stroke-linecap:butt;stroke-linejoin:miter;stroke:rgb(0%,0%,0%);stroke-opacity:1;stroke-miterlimit:10;" d="M 147.28125 164.539062 L 165.617188 160.234375 "/>
<path style="fill:none;stroke-width:1.2;stroke-linecap:butt;stroke-linejoin:miter;stroke:rgb(0%,0%,0%);stroke-opacity:1;stroke-miterlimit:10;" d="M 165.617188 160.234375 L 168.335938 151.21875 "/>
<path style="fill:none;stroke-width:1.2;stroke-linecap:butt;stroke-linejoin:miter;stroke:rgb(0%,0%,100%);stroke-opacity:1;stroke-miterlimit:10;" d="M 168.335938 151.21875 L 171.054688 142.203125 "/>
<path style="fill:none;stroke-width:1.2;stroke-linecap:butt;stroke-linejoin:miter;stroke:rgb(0%,0%,100%);stroke-opacity:1;stroke-miterlimit:10;" d="M 171.054688 142.203125 L 164.609375 135.339844 "/>
<path style="fill:none;stroke-width:1.2;stroke-linecap:butt;stroke-linejoin:miter;stroke:rgb(0%,0%,0%);stroke-opacity:1;stroke-miterlimit:10;" d="M 164.609375 135.339844 L 158.160156 128.476562 "/>
<path style="fill:none;stroke-width:1.2;stroke-linecap:butt;stroke-linejoin:miter;stroke:rgb(0%,0%,100%);stroke-opacity:1;stroke-miterlimit:10;" d="M 171.054688 142.203125 L 180.222656 140.050781 "/>
<path style="fill:none;stroke-width:1.2;stroke-linecap:butt;stroke-linejoin:miter;stroke:rgb(0%,0%,0%);stroke-opacity:1;stroke-miterlimit:10;" d="M 180.222656 140.050781 L 189.390625 137.898438 "/>
<path style=" stroke:none;fill-rule:nonzero;fill:rgb(100%,100%,100%);fill-opacity:1;" d="M 168.054688 136.703125 L 175.054688 136.703125 L 175.054688 147.703125 L 168.054688 147.703125 Z M 168.054688 136.703125 "/>
<g style="fill:rgb(0%,0%,100%);fill-opacity:1;">
  <use xlink:href="#glyph0-1" x="168.054688" y="145.366211"/>
</g>
<path style="fill:none;stroke-width:1.2;stroke-linecap:butt;stroke-linejoin:miter;stroke:rgb(0%,0%,0%);stroke-opacity:1;stroke-miterlimit:10;" d="M 158.160156 128.476562 L 139.824219 132.78125 "/>
<path style="fill:none;stroke-width:1.2;stroke-linecap:butt;stroke-linejoin:miter;stroke:rgb(0%,0%,0%);stroke-opacity:1;stroke-miterlimit:10;" d="M 191.511719 138.539062 L 194.234375 129.523438 "/>
<path style="fill:none;stroke-width:1.2;stroke-linecap:butt;stroke-linejoin:miter;stroke:rgb(100%,0%,0%);stroke-opacity:1;stroke-miterlimit:10;" d="M 194.234375 129.523438 L 196.953125 120.507812 "/>
<path style="fill:none;stroke-width:1.2;stroke-linecap:butt;stroke-linejoin:miter;stroke:rgb(0%,0%,0%);stroke-opacity:1;stroke-miterlimit:10;" d="M 187.269531 137.257812 L 189.988281 128.242188 "/>
<path style="fill:none;stroke-width:1.2;stroke-linecap:butt;stroke-linejoin:miter;stroke:rgb(100%,0%,0%);stroke-opacity:1;stroke-miterlimit:10;" d="M 189.988281 128.242188 L 192.710938 119.226562 "/>
<path style="fill:none;stroke-width:1.2;stroke-linecap:butt;stroke-linejoin:miter;stroke:rgb(0%,0%,0%);stroke-opacity:1;stroke-miterlimit:10;" d="M 189.390625 137.898438 L 195.839844 144.761719 "/>
<path style="fill:none;stroke-width:1.2;stroke-linecap:butt;stroke-linejoin:miter;stroke:rgb(0%,0%,100%);stroke-opacity:1;stroke-miterlimit:10;" d="M 195.839844 144.761719 L 202.285156 151.625 "/>
<path style=" stroke:none;fill-rule:nonzero;fill:rgb(100%,100%,100%);fill-opacity:1;" d="M 190.832031 114.367188 L 198.832031 114.367188 L 198.832031 125.367188 L 190.832031 125.367188 Z M 190.832031 114.367188 "/>
<g style="fill:rgb(100%,0%,0%);fill-opacity:1;">
  <use xlink:href="#glyph0-2" x="190.832031" y="123.030273"/>
</g>
<path style="fill:none;stroke-width:1.2;stroke-linecap:butt;stroke-linejoin:miter;stroke:rgb(0%,0%,100%);stroke-opacity:1;stroke-miterlimit:10;" d="M 202.285156 151.625 L 211.453125 149.472656 "/>
<path style="fill:none;stroke-width:1.2;stroke-linecap:butt;stroke-linejoin:miter;stroke:rgb(0%,0%,0%);stroke-opacity:1;stroke-miterlimit:10;" d="M 211.453125 149.472656 L 220.621094 147.320312 "/>
<path style=" stroke:none;fill-rule:nonzero;fill:rgb(100%,100%,100%);fill-opacity:1;" d="M 195.285156 146.125 L 209.285156 146.125 L 209.285156 157.125 L 195.285156 157.125 Z M 195.285156 146.125 "/>
<g style="fill:rgb(0%,0%,100%);fill-opacity:1;">
  <use xlink:href="#glyph0-1" x="195.285156" y="154.788086"/>
  <use xlink:href="#glyph0-3" x="202.262695" y="154.788086"/>
</g>
<path style="fill:none;stroke-width:1.2;stroke-linecap:butt;stroke-linejoin:miter;stroke:rgb(0%,0%,0%);stroke-opacity:1;stroke-miterlimit:10;" d="M 220.621094 147.320312 L 233.519531 161.046875 "/>
<path style="fill:none;stroke-width:1.2;stroke-linecap:butt;stroke-linejoin:miter;stroke:rgb(0%,0%,0%);stroke-opacity:1;stroke-miterlimit:10;" d="M 225.140625 145.660156 L 235.457031 156.640625 "/>
<path style="fill:none;stroke-width:1.2;stroke-linecap:butt;stroke-linejoin:miter;stroke:rgb(0%,0%,0%);stroke-opacity:1;stroke-miterlimit:10;" d="M 226.0625 129.289062 L 220.621094 147.320312 "/>
<path style="fill:none;stroke-width:1.2;stroke-linecap:butt;stroke-linejoin:miter;stroke:rgb(0%,0%,0%);stroke-opacity:1;stroke-miterlimit:10;" d="M 233.519531 161.046875 L 251.855469 156.742188 "/>
<path style="fill:none;stroke-width:1.2;stroke-linecap:butt;stroke-linejoin:miter;stroke:rgb(0%,0%,0%);stroke-opacity:1;stroke-miterlimit:10;" d="M 251.855469 156.742188 L 257.292969 138.710938 "/>
<path style="fill:none;stroke-width:1.2;stroke-linecap:butt;stroke-linejoin:miter;stroke:rgb(0%,0%,0%);stroke-opacity:1;stroke-miterlimit:10;" d="M 248.15625 153.660156 L 252.507812 139.234375 "/>
<path style="fill:none;stroke-width:1.2;stroke-linecap:butt;stroke-linejoin:miter;stroke:rgb(0%,0%,0%);stroke-opacity:1;stroke-miterlimit:10;" d="M 251.855469 156.742188 L 258.300781 163.605469 "/>
<path style="fill:none;stroke-width:1.2;stroke-linecap:butt;stroke-linejoin:miter;stroke:rgb(20%,80%,80%);stroke-opacity:1;stroke-miterlimit:10;" d="M 258.300781 163.605469 L 264.75 170.46875 "/>
<path style="fill:none;stroke-width:1.2;stroke-linecap:butt;stroke-linejoin:miter;stroke:rgb(0%,0%,0%);stroke-opacity:1;stroke-miterlimit:10;" d="M 257.292969 138.710938 L 244.398438 124.984375 "/>
<path style="fill:none;stroke-width:1.2;stroke-linecap:butt;stroke-linejoin:miter;stroke:rgb(0%,0%,0%);stroke-opacity:1;stroke-miterlimit:10;" d="M 244.398438 124.984375 L 226.0625 129.289062 "/>
<path style="fill:none;stroke-width:1.2;stroke-linecap:butt;stroke-linejoin:miter;stroke:rgb(0%,0%,0%);stroke-opacity:1;stroke-miterlimit:10;" d="M 243.578125 129.730469 L 228.910156 133.171875 "/>
<path style=" stroke:none;fill-rule:nonzero;fill:rgb(100%,100%,100%);fill-opacity:1;" d="M 261.75 164.96875 L 267.75 164.96875 L 267.75 175.96875 L 261.75 175.96875 Z M 261.75 164.96875 "/>
<g style="fill:rgb(20%,80%,80%);fill-opacity:1;">
  <use xlink:href="#glyph0-4" x="261.75" y="173.631836"/>
</g>
<path style="fill:none;stroke-width:1.2;stroke-linecap:butt;stroke-linejoin:miter;stroke:rgb(0%,0%,0%);stroke-opacity:1;stroke-miterlimit:10;" d="M 77.257812 163.085938 L 74.535156 172.101562 "/>
<path style="fill:none;stroke-width:1.2;stroke-linecap:butt;stroke-linejoin:miter;stroke:rgb(100%,0%,0%);stroke-opacity:1;stroke-miterlimit:10;" d="M 74.535156 172.101562 L 71.816406 181.117188 "/>
<path style="fill:none;stroke-width:1.2;stroke-linecap:butt;stroke-linejoin:miter;stroke:rgb(0%,0%,0%);stroke-opacity:1;stroke-miterlimit:10;" d="M 81.5 164.367188 L 78.777344 173.382812 "/>
<path style="fill:none;stroke-width:1.2;stroke-linecap:butt;stroke-linejoin:miter;stroke:rgb(100%,0%,0%);stroke-opacity:1;stroke-miterlimit:10;" d="M 78.777344 173.382812 L 76.058594 182.398438 "/>
<path style="fill:none;stroke-width:1.2;stroke-linecap:butt;stroke-linejoin:miter;stroke:rgb(0%,0%,0%);stroke-opacity:1;stroke-miterlimit:10;" d="M 79.378906 163.726562 L 66.480469 150 "/>
<path style=" stroke:none;fill-rule:nonzero;fill:rgb(100%,100%,100%);fill-opacity:1;" d="M 65.9375 176.257812 L 73.9375 176.257812 L 73.9375 187.257812 L 65.9375 187.257812 Z M 65.9375 176.257812 "/>
<g style="fill:rgb(100%,0%,0%);fill-opacity:1;">
  <use xlink:href="#glyph0-2" x="65.9375" y="184.920898"/>
</g>
<path style="fill:none;stroke-width:1.2;stroke-linecap:butt;stroke-linejoin:miter;stroke:rgb(0%,0%,0%);stroke-opacity:1;stroke-miterlimit:10;" d="M 66.480469 150 L 71.921875 131.96875 "/>
<path style="fill:none;stroke-width:1.2;stroke-linecap:butt;stroke-linejoin:miter;stroke:rgb(0%,0%,0%);stroke-opacity:1;stroke-miterlimit:10;" d="M 62.78125 146.917969 L 67.132812 132.492188 "/>
<path style="fill:none;stroke-width:1.2;stroke-linecap:butt;stroke-linejoin:miter;stroke:rgb(0%,0%,0%);stroke-opacity:1;stroke-miterlimit:10;" d="M 48.144531 154.304688 L 66.480469 150 "/>
<path style="fill:none;stroke-width:1.2;stroke-linecap:butt;stroke-linejoin:miter;stroke:rgb(0%,0%,0%);stroke-opacity:1;stroke-miterlimit:10;" d="M 71.921875 131.96875 L 59.027344 118.242188 "/>
<path style="fill:none;stroke-width:1.2;stroke-linecap:butt;stroke-linejoin:miter;stroke:rgb(0%,0%,0%);stroke-opacity:1;stroke-miterlimit:10;" d="M 59.027344 118.242188 L 49.859375 120.394531 "/>
<path style="fill:none;stroke-width:1.2;stroke-linecap:butt;stroke-linejoin:miter;stroke:rgb(0%,0%,100%);stroke-opacity:1;stroke-miterlimit:10;" d="M 49.859375 120.394531 L 40.691406 122.546875 "/>
<path style="fill:none;stroke-width:1.2;stroke-linecap:butt;stroke-linejoin:miter;stroke:rgb(0%,0%,0%);stroke-opacity:1;stroke-miterlimit:10;" d="M 58.203125 122.988281 L 50.871094 124.707031 "/>
<path style="fill:none;stroke-width:1.2;stroke-linecap:butt;stroke-linejoin:miter;stroke:rgb(0%,0%,100%);stroke-opacity:1;stroke-miterlimit:10;" d="M 50.871094 124.707031 L 43.535156 126.429688 "/>
<path style="fill:none;stroke-width:1.2;stroke-linecap:butt;stroke-linejoin:miter;stroke:rgb(0%,0%,100%);stroke-opacity:1;stroke-miterlimit:10;" d="M 40.691406 122.546875 L 37.96875 131.5625 "/>
<path style="fill:none;stroke-width:1.2;stroke-linecap:butt;stroke-linejoin:miter;stroke:rgb(0%,0%,0%);stroke-opacity:1;stroke-miterlimit:10;" d="M 37.96875 131.5625 L 35.25 140.578125 "/>
<path style=" stroke:none;fill-rule:nonzero;fill:rgb(100%,100%,100%);fill-opacity:1;" d="M 37.691406 117.046875 L 44.691406 117.046875 L 44.691406 128.046875 L 37.691406 128.046875 Z M 37.691406 117.046875 "/>
<g style="fill:rgb(0%,0%,100%);fill-opacity:1;">
  <use xlink:href="#glyph0-1" x="37.691406" y="125.709961"/>
</g>
<path style="fill:none;stroke-width:1.2;stroke-linecap:butt;stroke-linejoin:miter;stroke:rgb(0%,0%,0%);stroke-opacity:1;stroke-miterlimit:10;" d="M 35.25 140.578125 L 48.144531 154.304688 "/>
<path style="fill:none;stroke-width:1.2;stroke-linecap:butt;stroke-linejoin:miter;stroke:rgb(0%,0%,0%);stroke-opacity:1;stroke-miterlimit:10;" d="M 39.769531 138.917969 L 50.085938 149.898438 "/>
</g>
</svg>

<svg xmlns="http://www.w3.org/2000/svg" xmlns:xlink="http://www.w3.org/1999/xlink" width="300pt" height="300pt" viewBox="0 0 300 300"><defs><symbol overflow="visible"><path d="M.453 1.594v-7.938h4.5v7.938zm.5-.5h3.5v-6.938h-3.5zm0 0"/></symbol><symbol overflow="visible" id="a"><path d="M.89-6.563H2.08l2.906 5.485v-5.484h.86V0H4.656L1.75-5.484V0H.89zm0 0"/></symbol><symbol overflow="visible" id="b"><path d="M3.547-5.953c-.65 0-1.164.242-1.547.72-.375.48-.563 1.13-.563 1.952 0 .835.188 1.49.563 1.967.383.48.898.72 1.547.72.644 0 1.156-.24 1.53-.72.376-.476.564-1.132.564-1.968 0-.822-.187-1.474-.562-1.954-.375-.477-.887-.72-1.53-.72zm0-.734c.914 0 1.648.312 2.203.937.55.617.828 1.438.828 2.47 0 1.042-.277 1.87-.828 2.483-.555.617-1.29.922-2.203.922-.93 0-1.668-.305-2.22-.922C.774-1.41.5-2.237.5-3.28c0-1.033.273-1.853.828-2.47.55-.625 1.29-.938 2.22-.938zm0 0"/></symbol><symbol overflow="visible" id="c"><path d="M.89-6.563h.876v2.688H5v-2.688h.89V0H5v-3.125H1.766V0H.89zm0 0"/></symbol><symbol overflow="visible" id="d"><path d="M.89-6.563h3.766v.75h-2.89v1.938h2.61v.734h-2.61V0H.89zm0 0"/></symbol></defs><g><path fill="#fff" d="M0 0h300v300H0z"/><path d="M128.945 168.844l-18.336 4.304M134.383 150.813l-5.438 18.03M110.61 173.148l-6.45-6.863" stroke-width="1.2" stroke="#000" stroke-miterlimit="10" fill="none"/><path d="M104.16 166.285l-6.445-6.863M97.715 159.422l2.72-9.016" stroke-width="1.2" stroke="#00f" stroke-miterlimit="10" fill="none"/><path d="M100.434 150.406l2.718-9.015" stroke-width="1.2" stroke="#000" stroke-miterlimit="10" fill="none"/><path d="M97.715 159.422l-9.168 2.152" stroke-width="1.2" stroke="#00f" stroke-miterlimit="10" fill="none"/><path d="M88.547 161.574l-9.168 2.153" stroke-width="1.2" stroke="#000" stroke-miterlimit="10" fill="none"/><path d="M94.715 153.922h7v11h-7zm0 0" fill="#fff"/><use xlink:href="#a" x="94.715" y="162.585" fill="#00f"/><path d="M103.152 141.39l18.336-4.304M121.488 137.086l12.895 13.726M134.383 150.813l12.898 13.726M139.824 132.78l-5.44 18.032M147.28 164.54l18.337-4.306M165.617 160.234l2.72-9.015" stroke-width="1.2" stroke="#000" stroke-miterlimit="10" fill="none"/><path d="M168.336 151.22l2.72-9.017M171.055 142.203l-6.446-6.863" stroke-width="1.2" stroke="#00f" stroke-miterlimit="10" fill="none"/><path d="M164.61 135.34l-6.45-6.863" stroke-width="1.2" stroke="#000" stroke-miterlimit="10" fill="none"/><path d="M171.055 142.203l9.168-2.152" stroke-width="1.2" stroke="#00f" stroke-miterlimit="10" fill="none"/><path d="M180.223 140.05l9.168-2.152" stroke-width="1.2" stroke="#000" stroke-miterlimit="10" fill="none"/><path d="M168.055 136.703h7v11h-7zm0 0" fill="#fff"/><use xlink:href="#a" x="168.055" y="145.366" fill="#00f"/><path d="M158.16 128.477l-18.336 4.304M191.512 138.54l2.722-9.017" stroke-width="1.2" stroke="#000" stroke-miterlimit="10" fill="none"/><path d="M194.234 129.523l2.72-9.015" stroke-width="1.2" stroke="#f00" stroke-miterlimit="10" fill="none"/><path d="M187.27 137.258l2.718-9.016" stroke-width="1.2" stroke="#000" stroke-miterlimit="10" fill="none"/><path d="M189.988 128.242l2.723-9.015" stroke-width="1.2" stroke="#f00" stroke-miterlimit="10" fill="none"/><path d="M189.39 137.898l6.45 6.864" stroke-width="1.2" stroke="#000" stroke-miterlimit="10" fill="none"/><path d="M195.84 144.762l6.445 6.863" stroke-width="1.2" stroke="#00f" stroke-miterlimit="10" fill="none"/><path d="M190.832 114.367h8v11h-8zm0 0" fill="#fff"/><use xlink:href="#b" x="190.832" y="123.03" fill="#f00"/><path d="M202.285 151.625l9.168-2.152" stroke-width="1.2" stroke="#00f" stroke-miterlimit="10" fill="none"/><path d="M211.453 149.473l9.168-2.153" stroke-width="1.2" stroke="#000" stroke-miterlimit="10" fill="none"/><path d="M195.285 146.125h14v11h-14zm0 0" fill="#fff"/><g fill="#00f"><use xlink:href="#a" x="195.285" y="154.788"/><use xlink:href="#c" x="202.263" y="154.788"/></g><path d="M220.62 147.32l12.9 13.727M225.14 145.66l10.317 10.98M226.063 129.29l-5.442 18.03M233.52 161.047l18.335-4.305M251.855 156.742l5.438-18.03M248.156 153.66l4.352-14.426M251.855 156.742l6.446 6.863" stroke-width="1.2" stroke="#000" stroke-miterlimit="10" fill="none"/><path d="M258.3 163.605l6.45 6.864" stroke-width="1.2" stroke="#3cc" stroke-miterlimit="10" fill="none"/><path d="M257.293 138.71l-12.895-13.726M244.398 124.984l-18.335 4.305M243.578 129.73l-14.668 3.442" stroke-width="1.2" stroke="#000" stroke-miterlimit="10" fill="none"/><path d="M261.75 164.97h6v11h-6zm0 0" fill="#fff"/><use xlink:href="#d" x="261.75" y="173.632" fill="#3cc"/><path d="M77.258 163.086l-2.723 9.016" stroke-width="1.2" stroke="#000" stroke-miterlimit="10" fill="none"/><path d="M74.535 172.102l-2.72 9.015" stroke-width="1.2" stroke="#f00" stroke-miterlimit="10" fill="none"/><path d="M81.5 164.367l-2.723 9.016" stroke-width="1.2" stroke="#000" stroke-miterlimit="10" fill="none"/><path d="M78.777 173.383l-2.718 9.015" stroke-width="1.2" stroke="#f00" stroke-miterlimit="10" fill="none"/><path d="M79.38 163.727L66.48 150" stroke-width="1.2" stroke="#000" stroke-miterlimit="10" fill="none"/><path d="M65.938 176.258h8v11h-8zm0 0" fill="#fff"/><use xlink:href="#b" x="65.938" y="184.921" fill="#f00"/><path d="M66.48 150l5.442-18.03M62.78 146.918l4.353-14.426M48.145 154.305L66.48 150M71.922 131.97L59.027 118.24M59.027 118.242l-9.168 2.153" stroke-width="1.2" stroke="#000" stroke-miterlimit="10" fill="none"/><path d="M49.86 120.395l-9.17 2.152" stroke-width="1.2" stroke="#00f" stroke-miterlimit="10" fill="none"/><path d="M58.203 122.988l-7.332 1.72" stroke-width="1.2" stroke="#000" stroke-miterlimit="10" fill="none"/><path d="M50.87 124.707l-7.335 1.723M40.69 122.547l-2.72 9.016" stroke-width="1.2" stroke="#00f" stroke-miterlimit="10" fill="none"/><path d="M37.97 131.563l-2.72 9.015" stroke-width="1.2" stroke="#000" stroke-miterlimit="10" fill="none"/><path d="M37.69 117.047h7v11h-7zm0 0" fill="#fff"/><use xlink:href="#a" x="37.691" y="125.71" fill="#00f"/><path d="M35.25 140.578l12.895 13.727M39.77 138.918l10.316 10.98" stroke-width="1.2" stroke="#000" stroke-miterlimit="10" fill="none"/></g></svg>
